icons/admissions-line.svg

<svg xmlns="http://www.w3.org/2000/svg" viewBox="0 0 51.26 51.26">
  <g fill="#FFFFFF">
    <path d="m46.39 30.26-1.57-3a.63.63 0 0 0-.56-.34H32.43V26l-7.26-4-6.78 4v.84H7a.61.61 0 0 0-.55.34l-1.58 3a.6.6 0 0 0-.07.27v16.76h41.65V30.53a.6.6 0 0 0-.06-.27ZM32.46 28.1h11.41l.93 1.8H32.46Zm-7.27-4.62 6 3.26V42.9h-2.74v-7.49h-6.08v7.49h-2.71V27.47a.59.59 0 0 0 0-.14v-.6Zm2 19.42h-3.57v-6.24h3.58ZM7.38 28.1h11v1.8H6.45Zm-1.33 3h12.34v11.8H6.05ZM45.2 46H6.05v-1.85H45.2Zm-12.74-3.1V31.15H45.2V42.9Z"/>
    <path d="M25.41 29.9a2 2 0 1 0-2-2 2 2 0 0 0 2 2Zm0-2.79a.77.77 0 1 1-.77.77.76.76 0 0 1 .77-.77ZM7.07 36.18h4.19V32H7.07Zm1.25-2.93H10v1.68H8.32ZM12.71 32v4.18h4.19V32Zm2.94 2.93H14v-1.68h1.69ZM7.07 41.27h4.19v-4.18H7.07Zm1.25-2.93H10V40H8.32ZM12.71 41.27h4.19v-4.18h-4.19ZM14 38.34h1.69V40H14ZM33.92 36.18h4.19V32h-4.19Zm1.25-2.93h1.69v1.68h-1.69ZM39.56 36.18h4.19V32h-4.19Zm1.25-2.93h1.69v1.68h-1.69ZM33.92 41.27h4.19v-4.18h-4.19Zm1.25-2.93h1.69V40h-1.69ZM39.56 41.27h4.19v-4.18h-4.19Zm1.25-2.93h1.69V40h-1.69ZM24.34 19.68a1.66 1.66 0 0 0 2.14 0L34 12a.89.89 0 0 0 .21-1 1.33 1.33 0 0 0-1.21-.66h-3V4.71a1.3 1.3 0 0 0-1.3-1.3H22a1.31 1.31 0 0 0-1.3 1.3v5.63h-2.83a1.34 1.34 0 0 0-1.27.7.9.9 0 0 0 .21 1Zm-2.41-8.09L22 4.66h6.73v6.88h4l-7.09 7.2a.59.59 0 0 1-.37 0l-7.1-7.21Z"/>
  </g>
</svg>

<svg xmlns="http://www.w3.org/2000/svg" viewBox="0 0 51.26 51.26"><defs><style>.cls-1{fill:#fff;}</style></defs><g id="Layer_2" data-name="Layer 2"><path class="cls-1" d="M46.39,30.26s0,0,0,0l-1.57-3a.63.63,0,0,0-.56-.34H32.43V26l-7.26-4-6.78,4v.84H7a.61.61,0,0,0-.55.34l-1.58,3v0a.6.6,0,0,0-.07.27V47.21H46.45V30.53A.6.6,0,0,0,46.39,30.26ZM32.46,28.1H43.87l.93,1.8H32.46Zm-7.27-4.62,6,3.26V42.9H28.45V35.41H22.37V42.9H19.66V27.47a.59.59,0,0,0,0-.14v-.6Zm2,19.42H23.62V36.66H27.2ZM7.38,28.1h11v1.8H6.45Zm-1.33,3H18.39V42.9H6.05ZM45.2,46H6.05V44.15H45.2ZM32.46,42.9V31.15H45.2V42.9Z"/><path class="cls-1" d="M25.41,29.9a2,2,0,1,0-2-2A2,2,0,0,0,25.41,29.9Zm0-2.79a.77.77,0,1,1-.77.77A.76.76,0,0,1,25.41,27.11Z"/><path class="cls-1" d="M7.07,36.18h4.19V32H7.07Zm1.25-2.93H10v1.68H8.32Z"/><path class="cls-1" d="M12.71,32v4.18H16.9V32Zm2.94,2.93H14V33.25h1.69Z"/><path class="cls-1" d="M7.07,41.27h4.19V37.09H7.07Zm1.25-2.93H10V40H8.32Z"/><path class="cls-1" d="M12.71,41.27H16.9V37.09H12.71ZM14,38.34h1.69V40H14Z"/><path class="cls-1" d="M33.92,36.18h4.19V32H33.92Zm1.25-2.93h1.69v1.68H35.17Z"/><path class="cls-1" d="M39.56,36.18h4.19V32H39.56Zm1.25-2.93H42.5v1.68H40.81Z"/><path class="cls-1" d="M33.92,41.27h4.19V37.09H33.92Zm1.25-2.93h1.69V40H35.17Z"/><path class="cls-1" d="M39.56,41.27h4.19V37.09H39.56Zm1.25-2.93H42.5V40H40.81Z"/><path class="cls-1" d="M24.34,19.68a1.66,1.66,0,0,0,2.14,0L34,12a.89.89,0,0,0,.21-1A1.33,1.33,0,0,0,33,10.34H30V4.71a1.3,1.3,0,0,0-1.3-1.3H22a1.31,1.31,0,0,0-1.3,1.3v5.63H17.87a1.34,1.34,0,0,0-1.27.7.9.9,0,0,0,.21,1Zm-2.41-8.09L22,4.66l6.73,0v6.88h4l-7.09,7.2a.59.59,0,0,1-.37,0l-7.1-7.21Z"/></g></svg>
